X:1
T:[ID 8v-5a (=8-191a)]
T:[ID 8v-5a (=8-191a)]
T:Bezeichnung standardisiert: Walzer \"Ahnlich in dieser Quelle: ID 1-68a (Anm. S. Wascher); \"Ahnlich in dieser Quelle: ID ID 8v-5a (Anm. S. Wascher); Waltzer
T:Urheber unbekannt Datum in der hier transkribierten schriftlichen Quelle: 1792
C:Urheber unbekannt
C:Datum in der hier transkribierten schriftlichen Quelle: 1792
L:1/8
M:3/8
K:D
V:1 treble 
V:1
 fff | ggg | aa/g/a/f/ | gg/f/g/e/ | fff | ggg | aa/g/f/e/ | d3 :: eee | fff | ba^g | a/^g/a/b/a | %12
 eee | fff | ba^g | a3 :: gg/f/g/e/ | ff/e/f/d/ | edc | d/c/d/e/d | gg/f/g/e/ | ff/e/f/d/ | edc | %23
 d2 :| %24

